client/Assets/Features/GamePlay/Options/Levels/Level_9/Level_9.svg

<?xml version="1.0" encoding="UTF-8" standalone="no"?>
<svg
   width="1200"
   height="1200"
   viewBox="0 0 1200 1200"
   fill="none"
   version="1.1"
   id="svg9"
   xmlns="http://www.w3.org/2000/svg"
   xmlns:svg="http://www.w3.org/2000/svg">
  <g
     clip-path="url(#clip0_58_229)"
     id="g9">
    <path
       d="m 0,960 h 240 v 140 c 0,55.23 -44.772,100 -100,100 H 0 Z"
       fill="#fee205"
       id="path1" />
    <path
       d="m 240,720 h 240 v 140 c 0,55.228 -44.772,100 -100,100 H 240 Z"
       fill="#fe9600"
       id="path2" />
    <path
       d="m 480,480 h 240 v 140 c 0,55.228 -44.772,100 -100,100 H 480 Z"
       fill="#f94a5e"
       id="path3" />
    <path
       d="m 720,240 h 240 v 140 c 0,55.228 -44.772,100 -100,100 H 720 Z"
       fill="#854565"
       id="path4" />
    <path
       d="m 960,0 h 240 v 140 c 0,55.228 -44.77,100 -100,100 H 960 Z"
       fill="#3f274f"
       id="path5" />
    <path
       d="M 240,960 H 0 L 1.22392e-5,820 C 1.70674e-5,764.772 44.7716,720 100,720 h 140 z"
       fill="#fdbf00"
       id="path6" />
    <path
       d="M 480,720 H 240 V 580 c 0,-55.228 44.772,-100 100,-100 h 140 z"
       fill="#fe6a49"
       id="path7" />
    <path
       d="M 720,480 H 480 V 340 c 0,-55.228 44.772,-100 100,-100 h 140 z"
       fill="#c3446d"
       id="path8" />
    <path
       d="M 960,240 H 720 V 100 C 720,44.7715 764.772,-1.70674e-5 820,-1.22392e-5 L 960,0 Z"
       fill="#573d67"
       id="path9" />
  </g>
  <defs
     id="defs9">
    <clipPath
       id="clip0_58_229">
      <rect
         width="1200"
         height="1200"
         fill="white"
         id="rect9" />
    </clipPath>
  </defs>
</svg>

<svg width="1200" height="1200" viewBox="0 0 1200 1200" fill="none" xmlns="http://www.w3.org/2000/svg">
<g clip-path="url(#clip0_58_229)">
<path d="M0 960H240V1100C240 1155.23 195.228 1200 140 1200H0V960Z" fill="#FEE205"/>
<path d="M240 720H480V860C480 915.228 435.228 960 380 960H240V720Z" fill="#FE9600"/>
<path d="M480 480H720V620C720 675.228 675.228 720 620 720H480V480Z" fill="#F94A5E"/>
<path d="M720 240H960V380C960 435.228 915.228 480 860 480H720V240Z" fill="#854565"/>
<path d="M960 0H1200V140C1200 195.228 1155.23 240 1100 240H960V0Z" fill="#3F274F"/>
<path d="M240 960L0 960L1.22392e-05 820C1.70674e-05 764.772 44.7716 720 100 720L240 720L240 960Z" fill="#FDBF00"/>
<path d="M480 720L240 720L240 580C240 524.772 284.772 480 340 480L480 480L480 720Z" fill="#FE6A49"/>
<path d="M720 480L480 480L480 340C480 284.772 524.772 240 580 240L720 240L720 480Z" fill="#C3446D"/>
<path d="M960 240L720 240L720 100C720 44.7715 764.772 -1.70674e-05 820 -1.22392e-05L960 0L960 240Z" fill="#573D67"/>
</g>
<defs>
<clipPath id="clip0_58_229">
<rect width="1200" height="1200" fill="white"/>
</clipPath>
</defs>
</svg>
